X:810
T:Rendezvous, The
R:Reel
B:The Athole Collection
M:C|
L:1/8
K:G
B|G2GD B,DGF|EAAG FGAB|G2GD B,DGF|EGFA BGG:|
c|B/c/d dg Bdgd|^c/d/e ea ceae|B/c/d dg Bdgd|egdg BGGc|
B/c/d dg Bdgd Bdgd|^c/d/e ea ceae|dbfa gdBG|EGFA BGG||

